X:1
T:BWV253 Soprano
C:Music21
L:1/4
M:4/4
K:A
V:1 name="Melody" clef=treble
%%MIDI program 1 40
 c/d/ e c A | B c d c | B A A3/2 B/ | c c B/A/ B | A3  c | B c A F | B A B c | A A A3/2 B/ | c c B/A/ B | A3 |]
V:2 name="Chords" clef=treble
%%MIDI program 2 0
[A,EA] [A,Ec] [A,EA] [A,CE] | [EAB] [EAc] [FAd] [EAc] | [EGB] [CEA] [CEA] [EGB] | [EAc] [EAc] [EGB] [EGB] | [CEA] [CEA] [CEA] [EAc] | [EGB] [EAc] [CEA] [A,CF] | [EGB] [CEA] [EGB] [EAc] | [CEA] [CEA] [CEA] [EGB] | [EAc] [EAc] [EGB] [EGB] | [CEA] [CEA] [CEA] |]

================================================================================
ITERATION 2 — REVISE
================================================================================

--- Harmonizer reasoning ---
Key:     A major
Phrases: bars 1-5 (ends bar 5), bars 6-10 (ends bar 10)
Cadences: bar 5 half cadence on E (V), bar 10 perfect authentic cadence I (A)
Arc:     phrase 1: I–V–vi–ii–V–I; phrase 2: I–vi–IV–V–I–V–I
Notes:   Add more ii, IV, vi chords; fix ambiguous EAB; clear V-I cadences

--- ABC ---
